src/components/Icon/assets/chat-bubble.svg

<svg width="24" height="24" viewBox="0 0 24 24" fill="none" xmlns="http://www.w3.org/2000/svg">
<path fill-rule="evenodd" clip-rule="evenodd" d="M11.9986 4.0006C9.8776 4.0006 7.8726 4.81859 6.3496 6.33759C4.5086 8.1756 3.6906 10.7236 4.1066 13.3276C4.6486 16.7136 7.4096 19.4226 10.8226 19.9156C12.5336 20.1626 14.2386 19.8676 15.7486 19.0606C16.3906 18.7186 17.1066 18.6486 17.7636 18.8676L19.4196 19.4186L18.8676 17.7636C18.6496 17.1076 18.7176 16.3926 19.0606 15.7486C19.9446 14.0936 20.2116 12.2286 19.8346 10.3546C19.1876 7.1426 16.5806 4.6326 13.3456 4.1096C12.8936 4.0366 12.4436 4.0006 11.9986 4.0006M12.0006 22.0006C11.5146 22.0006 11.0256 21.9656 10.5366 21.8946C6.2666 21.2776 2.8106 17.8846 2.1326 13.6436C1.6136 10.3976 2.6356 7.2186 4.9366 4.9226C7.2376 2.6256 10.4206 1.6106 13.6646 2.1356C17.7176 2.7916 20.9856 5.9356 21.7956 9.9596C22.2656 12.2946 21.9296 14.6216 20.8256 16.6896C20.7776 16.7786 20.7066 16.9556 20.7656 17.1316L21.6336 19.7356C21.8136 20.2776 21.6756 20.8656 21.2706 21.2706C20.8656 21.6746 20.2766 21.8126 19.7356 21.6326L17.1306 20.7646C16.9556 20.7066 16.7806 20.7776 16.6916 20.8246C15.2346 21.6026 13.6356 22.0006 12.0006 22.0006" fill="#65676A"/>
</svg>

<svg xmlns="http://www.w3.org/2000/svg" width="24" height="24" viewBox="0 0 24 24">
    <path fill="#65676A" fill-rule="evenodd" d="M11.999 4c-2.121 0-4.126.819-5.65 2.338-1.84 1.838-2.658 4.386-2.242 6.99.542 3.386 3.303 6.095 6.716 6.588 1.71.247 3.416-.048 4.926-.855.642-.342 1.358-.412 2.015-.193l1.656.55-.552-1.654c-.218-.656-.15-1.371.193-2.015.884-1.655 1.15-3.52.774-5.394-.647-3.212-3.254-5.722-6.49-6.245C12.895 4.037 12.445 4 12 4M12 22c-.486 0-.975-.034-1.464-.105-4.27-.617-7.726-4.01-8.404-8.251-.52-3.246.503-6.425 2.804-8.721 2.3-2.297 5.484-3.312 8.728-2.787 4.053.656 7.32 3.8 8.13 7.824.47 2.335.135 4.662-.97 6.73-.047.089-.118.266-.06.442l.869 2.604c.18.542.042 1.13-.363 1.535-.405.404-.994.542-1.535.362l-2.605-.868c-.175-.058-.35.013-.44.06-1.456.778-3.055 1.176-4.69 1.176"/>
</svg>
